X:1
T:St. Mary, CM
T:Arranged from Prys’ Welsh Psalter, 1621
T:St. Mary, CM
T:Public Domain
C:Arranged from Prys&#8217; Welsh Psalter, 1621
Z:Public Domain
%%score ( 1 2 ) ( 3 4 )
L:1/8
M:4/4
K:F
V:1 treble 
V:2 treble 
V:3 bass 
V:4 bass 
V:1
 [A,D]2 | [DF]2 [^CE]2 D2 [Fd]2 | [Fc]2 [DB]2 [DA]2 [CA]2 | [Cc]2 F2 [FA]2 [EG]2 | F6 [FA]2 | %5
 [Gc]2 [Fd]2 [Ee]2 [FA]2 | [CG]2 [DF]2 [Ec]2 [EG]2 | [FA]2 D2 [DF]2 [^CE]2 | D6 |] %9
V:2
 x2 | x4 D2 x2 | x8 | x2 F2 x4 | F6 x2 | x8 | x8 | x2 D2 x4 | D6 |] %9
V:3
 [D,F,]2 | [D,A,]2 [A,,A,]2 [B,,F,]2 [B,,B,]2 | [F,A,]2 G,2 [D,^F,]2 =F,2 | %3
 [E,G,]2 [D,A,]2 (A,,B,,)(B,C) | [F,,A,]6 [F,C]2 | [E,C]2 [D,=B,]2 [C,C]2 [F,C]2 | %6
 [E,C]2 (A,=B,) [C,C]2 [C,C]2 | [F,,C]2 [G,,B,]2 [A,,A,]2 (G,A,) | [D,F,]6 |] %9
V:4
 x2 | x8 | x2 G,2 =F,2 x2 | x4 C2 C,2 | x8 | x8 | x2 D,2 x4 | x6 A,,2 | x6 |] %9

